design/common.blocks/icon/_network/icon_network_facebook.svg

<?xml version="1.0" encoding="UTF-8" standalone="no"?>
<!-- Generator: Adobe Illustrator 16.0.4, SVG Export Plug-In . SVG Version: 6.00 Build 0)  -->
<!DOCTYPE svg  PUBLIC '-//W3C//DTD SVG 1.1//EN'  'http://www.w3.org/Graphics/SVG/1.1/DTD/svg11.dtd'>
<svg id="Layer_1" xmlns="http://www.w3.org/2000/svg" xml:space="preserve" height="24px" viewBox="0 0 24 24" width="24px" version="1.1" y="0px" x="0px" xmlns:xlink="http://www.w3.org/1999/xlink" enable-background="new 0 0 24 24">
<path d="m24 2.2v19.6c0 1.2-1 2.2-2.2 2.2h-5.8v-10h3.5l0.5-3h-4v-2.3c0-0.9 0.8-1.7 1.7-1.7h1.3v-3h-3c-3 0-4 1.5-4 4v3h-3v3h3v10h-9.8c-1.2 0-2.2-1-2.2-2.2v-19.6c0-1.2 1-2.2 2.2-2.2h19.6c1.2 0 2.2 1 2.2 2.2z" fill="#fff"/>
</svg>

<?xml version="1.0" encoding="utf-8"?>
<!-- Generator: Adobe Illustrator 16.0.4, SVG Export Plug-In . SVG Version: 6.00 Build 0)  -->
<!DOCTYPE svg PUBLIC "-//W3C//DTD SVG 1.1//EN" "http://www.w3.org/Graphics/SVG/1.1/DTD/svg11.dtd">
<svg version="1.1" id="Layer_1" xmlns="http://www.w3.org/2000/svg" xmlns:xlink="http://www.w3.org/1999/xlink" x="0px" y="0px"
	 width="24px" height="24px" viewBox="0 0 24 24" enable-background="new 0 0 24 24" xml:space="preserve">
<path fill="#fff" d="M24,2.2v19.6c0,1.2-1,2.2-2.2,2.2H16V14h3.5l0.5-3h-4V8.7C16,7.8,16.8,7,17.7,7H19V4h-3c-3,0-4,1.5-4,4v3H9v3h3v10H2.2
	C1,24,0,23,0,21.8V2.2C0,1,1,0,2.2,0h19.6C23,0,24,1,24,2.2z"/>
</svg>
